X: 1
T: Golden Wedding
M: 4/4
L: 1/8
R: reel
K: Gmix
|: Bc |: d2BG DGBd | gedB G2AB | c2AF cFAc | cdcA F2Bc |
d2BG DGBd | gedB G2e^f | gage dege |1 dBAB G2Bc :|2 dBAB G2e^f ||
|: g^fga gecg | ecgc egg2 | a2ab a^fde | ^faab afdf |
g^fga gecg | ecgc egg2 | a^fd^c d^fge |1 dBAB G2e^f :|2 dBAB G2Bc ||
